X: 17210
T: Her Golden Hair Hung Down In Ringlets
R: strathspey
M: 4/4
K: Dmajor
|:(3ABc|d>ef>d B>AF>A|d>ef>d B2 d>e|f2 d>f e2 e>d|e>d e2 e>g f>e|
(3ddd d>A B>AF>A|d>ef>d B2 d>e|f<a ~a2 f>ed>c|d2 d>c d2:|
|:d>B|d>e f3e d>B|~B3A ~G3A|B>A B>D e>d|e2 e>g f>e|
(3ddd d>A B>AF>A|d>ef>d B2 d>e|f<a ~a2 f>ed>c|d2 d>c d2:|

